X:270
T: Es sollt sich ein Jger ausjagen (34a), S. 120
N: T0159
O: Luxemburg
S: Singendes Volk, Esch-Alzette 1937 posth.]
N: Hoffelt, hhh Viktor Thill (Lehrer), 2.8.1915;
N: Melodieaufzeichnung: hhh Godefroid Heinrich,
N: um 1900, (34a+b)
R: Liebeslieder]
M: 6/8
L: 1/16
K: G
D2 | G2G2G2G2F2G2 | A4B2A2z2
A2 | B2B2B2d2c2B2 | B6A2z2
A2 | c4c2e4c2 | B4B2d4
G2 | A4A2c3BAB | G8z2
A2 | c4c2e4c2 | B4B2d4
G2 | A4A2c3BAB | G8z2

